Icons/Newspaper.svg

<svg viewBox="0 0 16 16" xmlns="http://www.w3.org/2000/svg">
 <path d="m.5 2.5h12l3 3v8h-15z" fill="#fff"/><g fill="none" stroke="#808080"><path d="m12.648438 2.3515625 3 3zm-12.148438.1484375v11h15v-8h-3v-3z"/><path d="m2.0047231 4.5095573 1.9905537-.0191186" stroke-width=".980931"/><path d="m5.0047531 4.5064421 2.9904937-.0128881" stroke-width=".987162"/><path d="m9.0047231 4.5095574 1.9905539-.019119" stroke-width=".980931"/><path d="m9.0021272 7.5064127 2.9957458-.0128661" stroke-width=".987184"/><path d="m9.0021198 11.506413 2.9957452-.01287" stroke-width=".987184"/><path d="m9.0047105 9.5095572 1.9905535-.0191186" stroke-width=".980931"/><path d="m12.004711 9.5095572 1.990554-.019119" stroke-width=".980931"/><path d="m13 7.5h1" stroke-width=".963026"/><path d="m13 11.518487h1" stroke-width=".963026"/></g><path d="m5.3338333 7.3328333c.3338334-.3328333 1.0016141-.3328333 1.3338904-.000557s.3322763.9989535-.0011088 1.3333386-.9978368.3343851-1.3322258-.0000039c-.3343891-.3343891-.3343891-.9999443-.0005558-1.3327777z" fill="#808080"/><path d="m2 8v4h6l-2-2h-2l-1-1z" fill="#808080"/></svg>

<?xml version="1.0" encoding="UTF-8" standalone="no"?>
<svg
   xmlns:dc="http://purl.org/dc/elements/1.1/"
   xmlns:cc="http://creativecommons.org/ns#"
   xmlns:rdf="http://www.w3.org/1999/02/22-rdf-syntax-ns#"
   xmlns:svg="http://www.w3.org/2000/svg"
   xmlns="http://www.w3.org/2000/svg"
   xmlns:sodipodi="http://sodipodi.sourceforge.net/DTD/sodipodi-0.dtd"
   xmlns:inkscape="http://www.inkscape.org/namespaces/inkscape"
   viewBox="0 0 16 16"
   version="1.1"
   id="svg8"
   sodipodi:docname="Newspaper.svg"
   inkscape:export-filename="C:\Users\Kalama\Documents\GitHub\CodeLab-bb\Icons\Newspaper.32.png"
   inkscape:export-xdpi="192"
   inkscape:export-ydpi="192"
   inkscape:version="0.92.4 (5da689c313, 2019-01-14)"><metadata
   id="metadata14">
  <rdf:RDF>
    <cc:Work
       rdf:about="">
      <dc:format>image/svg+xml</dc:format>
      <dc:type
         rdf:resource="http://purl.org/dc/dcmitype/StillImage" />
    </cc:Work>
  </rdf:RDF>
</metadata>
<defs
   id="defs12">
  <inkscape:path-effect
     effect="bspline"
     id="path-effect977"
     is_visible="true"
     weight="33.333333"
     steps="2"
     helper_size="0"
     apply_no_weight="true"
     apply_with_weight="true"
     only_selected="false" />
</defs>
<sodipodi:namedview
   pagecolor="#ffffff"
   bordercolor="#666666"
   borderopacity="1"
   objecttolerance="10"
   gridtolerance="10"
   guidetolerance="10"
   inkscape:pageopacity="0"
   inkscape:pageshadow="2"
   inkscape:window-width="1920"
   inkscape:window-height="1018"
   id="namedview10"
   showgrid="false"
   inkscape:zoom="45.254834"
   inkscape:cx="1.441076"
   inkscape:cy="8.0735361"
   inkscape:window-x="-8"
   inkscape:window-y="-8"
   inkscape:window-maximized="1"
   inkscape:current-layer="svg8" />



     /&amp;gt;
 <path
   style="fill:#ffffff;stroke:none;stroke-width:1px;stroke-linecap:butt;stroke-linejoin:miter;stroke-opacity:1;fill-opacity:1"
   d="m 0.5,2.5 h 12 l 3,3 v 8 h -15 z"
   id="path828"
   inkscape:connector-curvature="0" />
<path
   style="fill:none;stroke:#808080;stroke-width:1px;stroke-linecap:butt;stroke-linejoin:miter;stroke-opacity:1"
   d="M 12.648438 2.3515625 L 15.648438 5.3515625 L 12.648438 2.3515625 z M 0.5 2.5 L 0.5 13.5 L 15.5 13.5 L 15.5 5.5 L 12.5 5.5 L 12.5 2.5 L 0.5 2.5 z "
   id="path832" />
<path
   style="fill:none;stroke:#808080;stroke-width:0.98093086px;stroke-linecap:butt;stroke-linejoin:miter;stroke-opacity:1"
   d="M 2.0047231,4.5095573 3.9952768,4.4904387"
   id="path841"
   inkscape:connector-curvature="0" />
<path
   style="fill:none;stroke:#808080;stroke-width:0.9871617px;stroke-linecap:butt;stroke-linejoin:miter;stroke-opacity:1"
   d="M 5.0047531,4.5064421 7.9952468,4.493554"
   id="path841-7"
   inkscape:connector-curvature="0" />
<path
   style="fill:none;stroke:#808080;stroke-width:0.98093086px;stroke-linecap:butt;stroke-linejoin:miter;stroke-opacity:1"
   d="M 9.0047231,4.5095574 10.995277,4.4904384"
   id="path841-6"
   inkscape:connector-curvature="0" />
<path
   style="fill:none;stroke:#808080;stroke-width:0.98718369px;stroke-linecap:butt;stroke-linejoin:miter;stroke-opacity:1"
   d="M 9.0021272,7.5064127 11.997873,7.4935466"
   id="path841-7-8"
   inkscape:connector-curvature="0" />
<path
   style="fill:none;stroke:#808080;stroke-width:0.98718369px;stroke-linecap:butt;stroke-linejoin:miter;stroke-opacity:1"
   d="m 9.0021198,11.506413 2.9957452,-0.01287"
   id="path841-7-8-7"
   inkscape:connector-curvature="0" />
<path
   style="fill:none;stroke:#808080;stroke-width:0.98093086px;stroke-linecap:butt;stroke-linejoin:miter;stroke-opacity:1"
   d="M 9.0047105,9.5095572 10.995264,9.4904386"
   id="path841-4"
   inkscape:connector-curvature="0" />
<path
   style="fill:none;stroke:#808080;stroke-width:0.98093086px;stroke-linecap:butt;stroke-linejoin:miter;stroke-opacity:1"
   d="m 12.004711,9.5095572 1.990554,-0.019119"
   id="path841-78"
   inkscape:connector-curvature="0" />
<path
   style="fill:none;stroke:#808080;stroke-width:0.96302587px;stroke-linecap:butt;stroke-linejoin:miter;stroke-opacity:1"
   d="m 13,7.5 h 1"
   id="path841-78-4"
   inkscape:connector-curvature="0"
   sodipodi:nodetypes="cc" />
<path
   style="fill:none;stroke:#808080;stroke-width:0.96302587px;stroke-linecap:butt;stroke-linejoin:miter;stroke-opacity:1"
   d="m 13,11.518487 h 1"
   id="path841-78-4-7"
   inkscape:connector-curvature="0"
   sodipodi:nodetypes="cc" />
<path
   style="fill:#808080;fill-opacity:1;stroke:none;stroke-width:1px;stroke-linecap:butt;stroke-linejoin:miter;stroke-opacity:1"
   d="M 5.3338333,7.3328333 C 5.6676667,7 6.3354474,7 6.6677237,7.3322763 7,7.6645526 7,8.3312298 6.6666149,8.6656149 6.3332298,9 5.6687781,9 5.3343891,8.665611 5,8.3312219 5,7.6656667 5.3338333,7.3328333 Z"
   id="path975"
   inkscape:connector-curvature="0"
   inkscape:path-effect="#path-effect977"
   inkscape:original-d="M 5,7 C 5.6676667,6.999 6.3354474,6.999 7,7 7.001,7.6645526 7.001,8.3312298 7,9 6.3332298,8.999 5.6687781,8.999 5,9 5.001,8.3312219 5.001,7.6656667 5,7 Z"
   sodipodi:nodetypes="ccccc" />
<path
   style="fill:#808080;fill-opacity:1;stroke:none;stroke-width:1px;stroke-linecap:butt;stroke-linejoin:miter;stroke-opacity:1"
   d="m 2,8 v 4 H 8 L 6,10 H 4 L 3,9 Z"
   id="path979"
   inkscape:connector-curvature="0"
   sodipodi:nodetypes="ccccccc" />
</svg>
